!!!OTL@@DE: Andreas Hofer
!!!ODT: ~1844
!!!OMD: Moderato
!!!LYR: Mosen, Julius
!!!LDT: 1831
!!!OCL: Erk, Ludwig
!!!GCO: Deutscher Liederschatz, Band 1
**kern	**kern	**kern
*staff3	*staff2	*staff1
*Ipiano	*Ipiano	*Ivox
*clefF4	*clefG2	*clefG2
*k[f#]	*k[f#]	*k[f#]
*G:	*G:	*G:
*met(C)	*met(C)	*met(C)
*M4/4	*M4/4	*M4/4
*MM110	*MM110	*MM110
4D\	4d/	4d/
=1	=1	=1
4GG/ 4G/	4.B/ 4.d/ 4.g/	4.g/
4GG/ 4G/	.	.
.	8A/ 8d/ 8f#/	8f#/
4GG/ 4G/	4B/ 4d/ 4g/	4g/
4CC/ 4C/	4c/ 4e/ 4a/	4a/
=2	=2	=2
*	*^	*
2DD/ 2D/	(4g/	2A\ 2c\	(4g/
.	4f#/)	.	4f#/)
*	*v	*v	*
4EE/ 4E/	4G/ 4c/ 4e/	4e/
4FF#/ 4F#/	4A/ 4c/ 4d/	4d/
=3	=3	=3
*	*^	*
4GG/ 4G/	4.d/ 4.g/	4B\	4.g/
4AA\ 4A\	.	4c\	.
.	8f#/	.	8f#/
*	*v	*v	*
4BB\ 4B\	4d/ 4g/	4g/
4C\ 4A\	4e/ 4a/	4a/
=4	=4	=4
2D\ 2F#\ 2A\	2d/	2d/
4r	4r	4r
4D\	4d/	4d/
=5	=5	=5
4C\ 4c\	4.e/ 4.a/	4.a/
4BB\ 4B\	.	.
.	8d/ 8e/ 8g#/	8g#/
4C\ 4c\	4e/ 4a/	4a/
4GG#/ 4G#/	4d/ 4fn/ 4b/	4b\
=6	=6	=6
*	*^	*
*	*	*^	*
4AA\ (4A\	(4.cc/	2e/	4c\	(4.cc\
4BB\ 4G#\)	.	.	4d\)	.
.	8b/)	.	.	8b\)
*	*v	*v	*v	*
4C\ 4A\	4e/ 4a/	4a/
4C#\ 4A\	4e/ 4gn/	4gn/
=7	=7	=7
4D\ 4A\	4d/ 4f#/	4f#/
4D\ 4F#\ 4A\	4d/	4d/
*	*^	*
2D\	(4.b/	2c\ 2f#\	4.b\
.	8a/)	.	8a/
*	*v	*v	*
=8	=8	=8
2GG/ 2G/	2B/ 2g/	2g/
4r	4r	4r
4BB/	4B/	4B/
=9	=9	=9
4.E\	4.e/	4.e/
8G\	8g/	8g/
4F#\	4f#/	4f#/
4E\	4e/	4e/
=10	=10	=10
4D#\	4d#/	4d#/
4B\	4b\	4b\
4.BB/	4.B/	4.B/
8BB/	8B/ 8b/	8b\
=11	=11	=11
4.C/	4.c/ 4.cc/	4.cc\
8BB/	8B/ 8b/	8b\
4AA/	4A/ 4a/	4a/
4GG/ 4G/	4g/	4g/
=12	=12	=12
4FF#/ 4F#/	4f#/	4f#/
4EE/ 4E/	4e/	4e/
4BBB;/ 4BB;/	4d#;/ 4f#;/ 4b;/	4b;\
4D\	4dn/	4dn/
=13	=13	=13
4GG/	4.d/ 4.b/	4.b\
4G\	.	.
.	8d/ 8b/	8b\
4G\	4e/ 4cc/	4cc\
4G\	4d/ 4b/	4b\
=14	=14	=14
*^	*	*
(2E/	2.C\	[2c/ 2a/	(2a/
4A/)	.	4c/] 4e/	4e/)
4r	4C\	4c/ 4e/	4e/
=15	=15	=15	=15
*	*	*^	*
2r	4D\	4.B/ 4.d/	2r	4.d/
.	4D\	.	.	.
.	.	8B/ 8g/	.	8g/
4G/	2D\	(4.b/	4d\	4.b\
4F#/	.	.	4c\	.
.	.	8a/)	.	8a/
*	*	*v	*v	*
=16	=16	=16	=16
(4G/	2.GG\	2B/ 2g/	2g/
4F#/	.	.	.
4E/	.	4r	4r
4D/	4D\)	4d/	4d/
*v	*v	*	*
=17	=17	=17
4GG/	4.d/ 4.b/	4.b\
4G\	.	.
.	8d/ 8b/	8b\
4G\	4e/ 4cc/	4cc\
4G\	4d/ 4b/	4b\
=18	=18	=18
*^	*^	*
2E/	2.C\	(4a/	2.e\	(4a/
.	.	4ee/	.	4ee\
4A/	.	4cc/)	.	4cc\)
4c/	4C\	4a/	4e\	4a/
*	*	*v	*v	*
=19	=19	=19	=19
4.B/	4D\	4.d/ 4.g/	4.g/
.	4D\	.	.
8G/	.	8B/ 8d/	8d/
*	*	*^	*
4G/	2D\	(4.b/	4.d\	4.b\
4F#/	.	.	.	.
.	.	8a/)	8c\	8a/
*v	*v	*	*	*
*	*v	*v	*
=20	=20	=20
2GG/ 2D/ 2G/	2B/ 2g/	2g/
4r	4r	4r
==	==	==
*-	*-	*-
!!!ENC: Craig Stuart Sapp
!!!END: 2004/06/28/
!!!EFL: 167/651
